2 Export/Icons/Rounded/Star Rate.svg

<svg xmlns="http://www.w3.org/2000/svg" xmlns:xlink="http://www.w3.org/1999/xlink" width="24" height="24" viewBox="0 0 24 24">
  <defs>
    <path id="star-rate-a" d="M11.9332862,14.665 L14.3932862,16.455 C14.7832862,16.745 15.3132862,16.355 15.1632862,15.895 L14.2232862,13.005 L16.6532862,11.275 C17.0532862,10.995 16.8532862,10.365 16.3632862,10.365 L13.3832862,10.365 L12.4132862,7.345 C12.2632862,6.885 11.6132862,6.885 11.4632862,7.345 L10.4832862,10.365 L7.50328619,10.365 C7.01328619,10.365 6.81328619,10.995 7.21328619,11.275 L9.64328619,13.005 L8.70328619,15.895 C8.55328619,16.355 9.08328619,16.735 9.47328619,16.455 L11.9332862,14.665 Z"/>
  </defs>
  <g fill="none" fill-rule="evenodd">
    <polygon points="0 0 24 0 24 24 0 24"/>
    <mask id="star-rate-b" fill="#fff">
      <use xlink:href="#star-rate-a"/>
    </mask>
    <use fill="#000" xlink:href="#star-rate-a"/>
    <g fill="#000" mask="url(#star-rate-b)">
      <rect width="24" height="24"/>
    </g>
  </g>
</svg>

<svg xmlns="http://www.w3.org/2000/svg" xmlns:xlink="http://www.w3.org/1999/xlink" width="24" height="24" viewBox="0 0 24 24">
  <defs>
    <path id="star-rate-a" d="M11.933 14.665l2.46 1.79c.39.29.92-.1.77-.56l-.94-2.89 2.43-1.73c.4-.28.2-.91-.29-.91h-2.98l-.97-3.02a.5.5 0 0 0-.95 0l-.98 3.02h-2.98c-.49 0-.69.63-.29.91l2.43 1.73-.94 2.89c-.15.46.38.84.77.56l2.46-1.79z"/>
  </defs>
  <g fill="none" fill-rule="evenodd">
    <polygon points="0 0 24 0 24 24 0 24"/>
    <mask id="star-rate-b" fill="#fff">
      <use xlink:href="#star-rate-a"/>
    </mask>
    <use fill="#000" xlink:href="#star-rate-a"/>
    <g fill="#000" mask="url(#star-rate-b)">
      <rect width="24" height="24"/>
    </g>
  </g>
</svg>
